X:1
T:Ballington, LM
T:Ballington, LM
T:Carmina Sacra, by Lowell Mason, 1844
T:Public Domain Courtesy of the Cyber Hymnal™
C:Carmina Sacra, by Lowell Mason, 1844
Z:Public Domain
Z:Courtesy of the Cyber Hymnal™
%%score 1 2 3 4
L:1/8
Q:1/4=100
M:2/4
K:G
V:1 treble 
V:2 treble 
V:3 treble-8 
V:4 bass 
V:1
 d2 dc | B2 c2 | A2 c2 | B2 d2 | dA BB | A3 G | F4- | F z c2 | (Be d)c | (Bc B)A | G2 (Ge) | d3 d | %12
 c2 A2 | (Bd) (eB) | c2 (BA) | B4 |] %16
V:2
 G2 FA | G2 G2 | F2 D2 | D2 D2 | DD DD | D2 ^C2 | D4- | D z F2 | G3 F | G3 F | (GD) (EA) | %11
 (G2 F)F | G2 A2 | (GA) (GF) | E2 D2 | D4 |] %16
V:3
 B2 dF | G2 e2 | d2 F2 | G2 B2 | AD EG | F2 E2 | D4- | D z A2 | G3 A | (Be d)c | (Bd) (Gc) | %11
 (B2 A)B | c2 d2 | (ed) (cB) | A2 (GF) | G4 |] %16
V:4
 G,2 D,D, | E,2 C,2 | D,2 D,2 | G,,2 G,2 | F,F, G,G, | A,2 A,,2 | D,4- | D, z D,2 | (G,C B,)A, | %9
 G,3 D, | (G,B,,) (E,C,) | D,3 D, | E,2 F,2 | (G,F,) (E,D,) | C,2 D,2 | [G,,G,]4 |] %16

